X: 1
T: Vos vet zayn  [Am]
T: What will be
S: http://www.youtube.com/watch?v=RPEX7ciESy4
S: http://www.youtube.com/watch?v=8emigXc0D_Q
S: http://www.youtube.com/watch?v=snGC3hZO9rE
M: 2/4
L: 1/8
K: Am
EE |\
"Am"c2 AA | "E7"B2 ^GG | "Dm"A>A "^#"GF | "E"E3 E |\
"E7"E^G GG | "Am"^GA AA | "Dm"^GD EF | "E"E2 :|
|: z2 |\
"E7"^GG G2 | "Am"AA A2 | "E7"^GA Bc | "Am"BA A2 |\
"E7"^GG G2 | "Dm"AA A>A | "E"^GD "Dm"EF | "E"E2 :|
